site/static/images/icons/search_icon_circle.svg

<svg fill="none" height="48" viewBox="-13 -13 52 52" width="48" xmlns="http://www.w3.org/2000/svg"><circle cx="13" cy="13" fill="#ddd" fill-opacity=".2" r="26"/><path clip-rule="evenodd" d="m19.1248 11.25c0 1.0341-.2037 2.0581-.5995 3.0136-.3957.9554-.9758 1.8235-1.707 2.5549-.7313.7311-1.5994 1.3112-2.5548 1.7071-.9555.3957-1.9795.5994-3.0137.5994-1.0341 0-2.05816-.2037-3.01361-.5994-.95543-.3959-1.82357-.976-2.55483-1.7071-.73127-.7314-1.31132-1.5995-1.70709-2.5549-.39576-.9555-.59944-1.9795-.59944-3.0136 0-2.08864.82967-4.09167 2.30653-5.56851 1.47685-1.47686 3.47988-2.30654 5.56844-2.30654 2.0886 0 4.0916.82968 5.5685 2.30654 1.4769 1.47684 2.3065 3.47987 2.3065 5.56851zm-1.435 8.295c-2.1098 1.6379-4.7646 2.4102-7.4238 2.1596-2.65927-.2504-5.12308-1.505-6.88986-3.5082-1.7668-2.0032-2.703749-4.6044-2.620134-7.2741.083632-2.66975 1.181544-5.20725 3.070234-7.09594 1.88871-1.88868 4.42619-2.986599 7.09586-3.070232 2.6698-.08362 5.271.853332 7.2742 2.620132 2.0032 1.76679 3.2578 4.23059 3.5082 6.88984.2506 2.6592-.5217 5.314-2.1597 7.4239l5.32 5.32c.129.1202.2324.2651.3042.4261.0717.161.1102.3347.1134.511.0031.1762-.0294.3512-.0954.5147-.066.1634-.1643.3118-.2889.4364-.1246.1248-.273.2229-.4365.2889-.1634.066-.3384.0986-.5146.0954-.1763-.0031-.3502-.0416-.511-.1134-.161-.0717-.3059-.1752-.4262-.3041z" fill="#0075ff" fill-rule="evenodd"/></svg>

<svg width="48" height="48" viewBox="-13 -13 52 52" fill="none" xmlns="http://www.w3.org/2000/svg"><circle cx="13" cy="13" r="26" fill="#DDD" fill-opacity="0.2"/>
<path fill-rule="evenodd" clip-rule="evenodd" d="M19.1248 11.25C19.1248 12.2841 18.9211 13.3081 18.5253 14.2636C18.1296 15.219 17.5495 16.0871 16.8183 16.8185C16.087 17.5496 15.2189 18.1297 14.2635 18.5256C13.308 18.9213 12.284 19.125 11.2498 19.125C10.2157 19.125 9.19164 18.9213 8.23619 18.5256C7.28076 18.1297 6.41262 17.5496 5.68136 16.8185C4.95009 16.0871 4.37004 15.219 3.97427 14.2636C3.57851 13.3081 3.37483 12.2841 3.37483 11.25C3.37483 9.16136 4.2045 7.15833 5.68136 5.68149C7.15821 4.20463 9.16124 3.37495 11.2498 3.37495C13.3384 3.37495 15.3414 4.20463 16.8183 5.68149C18.2952 7.15833 19.1248 9.16136 19.1248 11.25ZM17.6898 19.545C15.58 21.1829 12.9252 21.9552 10.266 21.7046C7.60673 21.4542 5.14292 20.1996 3.37614 18.1964C1.60934 16.1932 0.672391 13.592 0.756006 10.9223C0.839638 8.25255 1.93755 5.71505 3.82624 3.82636C5.71495 1.93768 8.25243 0.839761 10.9221 0.756128C13.5919 0.672508 16.1931 1.60946 18.1963 3.37626C20.1995 5.14305 21.4541 7.60685 21.7045 10.2661C21.9551 12.9253 21.1828 15.5801 19.5448 17.69L24.8648 23.01C24.9938 23.1302 25.0972 23.2751 25.169 23.4361C25.2407 23.5971 25.2792 23.7708 25.2824 23.9471C25.2855 24.1233 25.253 24.2983 25.187 24.4618C25.121 24.6252 25.0227 24.7736 24.8981 24.8982C24.7735 25.023 24.6251 25.1211 24.4616 25.1871C24.2982 25.2531 24.1232 25.2857 23.947 25.2825C23.7707 25.2794 23.5968 25.2409 23.436 25.1691C23.275 25.0974 23.1301 24.9939 23.0098 24.865L17.6898 19.545Z" fill="#0075ff"/>
</svg>
